public/logo.svg

<svg width="64" height="60" viewBox="0 0 64 60" fill="none" xmlns="http://www.w3.org/2000/svg">
<path d="M16.4609 59.1337L9.76494 54.5534C9.2309 54.1837 9.10767 53.4442 9.49792 52.9307L25.4983 32.6992C25.9913 32.0624 25.6832 31.1381 24.9027 30.9327L1.28205 26.8454C0.686399 26.681 0.337225 26.0648 0.501542 25.4692L2.61713 17.3355C2.78145 16.6782 3.47979 16.329 4.09598 16.555L28.0042 26.6605C28.7641 26.9481 29.5652 26.3524 29.5241 25.5514L26.4842 1.17076C26.4637 0.534032 26.9772 0 27.6139 0H35.2136C35.8298 0 36.3433 0.513492 36.3433 1.12968L34.2893 25.3254C34.2893 26.1059 35.0698 26.6605 35.8092 26.3935L58.8753 16.7604C59.4504 16.555 60.0666 16.8425 60.3131 17.3971L63.4556 25.0995C63.7021 25.7157 63.3735 26.4346 62.7162 26.6194L38.3151 30.8301C37.5346 31.056 37.2265 31.9803 37.74 32.617L53.9047 52.4378C54.295 52.9102 54.2128 53.6086 53.7404 53.9988L47.4347 59.2775C46.9212 59.7088 46.1407 59.5856 45.771 59.031C41.3344 52.4583 37.1443 42.1269 32.6256 35.4515C32.1737 34.7737 31.1673 34.7942 30.7359 35.4515C26.361 42.1063 22.3352 52.294 18.063 58.7845C17.7138 59.3186 16.9949 59.4624 16.4814 59.0926L16.4609 59.1337Z" fill="#5D828B"/>
</svg>

<svg width="64" height="60" fill="none" xmlns="http://www.w3.org/2000/svg"><path d="m16.46 59.134-6.695-4.58a1.14 1.14 0 0 1-.267-1.623l16-20.232a1.114 1.114 0 0 0-.595-1.766l-23.62-4.088a1.119 1.119 0 0 1-.781-1.376l2.115-8.134a1.125 1.125 0 0 1 1.479-.78L28.004 26.66a1.127 1.127 0 0 0 1.52-1.109l-3.04-24.38A1.136 1.136 0 0 1 27.614 0h7.6c.616 0 1.13.513 1.13 1.13l-2.055 24.195c0 .78.78 1.335 1.52 1.069l23.066-9.634c.575-.205 1.192.082 1.438.637l3.143 7.703a1.139 1.139 0 0 1-.74 1.52l-24.4 4.21a1.12 1.12 0 0 0-.576 1.787l16.165 19.82A1.11 1.11 0 0 1 53.74 54l-6.305 5.279a1.133 1.133 0 0 1-1.664-.247c-4.437-6.573-8.627-16.904-13.145-23.58-.452-.677-1.459-.657-1.89 0-4.375 6.655-8.4 16.843-12.673 23.334a1.114 1.114 0 0 1-1.582.308l-.02.04Z" fill="#5D828B"/></svg>
